X:1
T:Bennet's Favorite -- Reel
R:reel
B:Ryan's Mammoth Collection
Z:Contributed by Ray Davies,  ray:davies99.freeserve.co.uk
M:2/4
L:1/16
K:D
uA,2|D2FE DFAc|dcdf ecAF|GBEG FADF|GFED CEA,C|
D2FE DFAc|dcdf ecAF|GBEG FADF|EDCE D2::
A,2|A,B,CD EFGE|FDEF GABc|dcdA Bcdf|gfge dcBA|
defd ceAc|dcdB AFDF|GBEG FADF|EDCE D2:|
